X:JMB-53
T:Pohlsk dans
T:(Totakt-pols, nr. JMB-53)
S:efter Jens Millersen Bjerg
R:Totakt-pols
B:Totakt-pols
O:Husby, Ringköbing amt, Danmark
N:Fler låtar från Danmark...
M:2/4
L:1/8
Q:100
K:D
|: "A"Aaaa  | "D"{b}a(g/f/) "A"e2 | "D"{g}f(e/d/) "E"{d}c(B/A/) | B2 "A"A2  :|
|: "E"!open!e B"A"cA | "E"!open!e B"A"cA | "E"!open!e e !open!e e | !open!e B"A"cA | a(g/f/) "E"(e/d/)(c/B/) | B2 "A"A2  :|

